icons/iterations-16.svg

<svg xmlns="http://www.w3.org/2000/svg" width="16" height="16" viewBox="0 0 16 16"><path d="M2.5 7.25a4.75 4.75 0 019.5 0 .75.75 0 001.5 0 6.25 6.25 0 10-6.25 6.25H12v2.146c0 .223.27.335.427.177l2.896-2.896a.25.25 0 000-.354l-2.896-2.896a.25.25 0 00-.427.177V12H7.25A4.75 4.75 0 012.5 7.25z"/></svg>

<svg xmlns="http://www.w3.org/2000/svg" width="16" height="16" viewBox="0 0 16 16">
  <defs/>
  <path d="M2.5,7.25 A4.75 4.75 0 0 1 12,7.25 A0.75 0.75 0 0 0 13.5,7.25 A6.25 6.25 0 1 0 7.25,13.5 L12,13.5 L12,15.646 C12,15.869 12.27,15.981 12.427,15.823 L15.323,12.927 A0.25 0.25 0 0 0 15.323,12.573 L12.427,9.677 A0.25 0.25 0 0 0 12,9.854 L12,12 L7.25,12 A4.75 4.75 0 0 1 2.5,7.25 Z"/>
</svg>
